X: 35633
T: Sailing In
R: reel
M: 4/4
K: Dmajor
D3 A FA~A2|DAFA BGEC|D2 AD FA~A2|GE E2 =CEA,E|
~D3A FA~A2|DAFA BGEC|D2 AD FA~A2|BGEF G2 FE||
Dd~d2 d2 AG|FAdf ecAG|FAdA FAdf|edcB (3ABA (3GFE|
Dd~d2 d2 AG|FAdf efge|afge fded|ceBd cAGE||

